Suru++-Ubuntu/apps/scalable/eclipse.svg

<svg width="256" height="256" version="1.1" viewBox="0 0 67.73 67.73" xmlns="http://www.w3.org/2000/svg" xmlns:xlink="http://www.w3.org/1999/xlink">
 <defs>
  <linearGradient id="linearGradient1108" x1="296" x2="296" y1="-212" y2="236" gradientUnits="userSpaceOnUse">
   <stop style="stop-color:#ffffff" offset="0"/>
   <stop style="stop-color:#ffffff;stop-opacity:.09803922" offset=".125"/>
   <stop style="stop-color:#000000;stop-opacity:.09803922" offset=".925"/>
   <stop style="stop-color:#000000;stop-opacity:.49803922" offset="1"/>
  </linearGradient>
  <clipPath id="clipPath1082-3-7-2">
   <path d="M 361.9375,-212 C 507.2348,-212 528,-191.28677 528,-46.125 V 70.125 C 528,215.28618 507.2348,236 361.9375,236 H 214.0625 C 68.7652,236 48,215.28618 48,70.125 V -46.125 C 48,-191.28677 68.7652,-212 214.0625,-212 Z" style="fill:#8c59d9"/>
  </clipPath>
  <filter id="filter907" x="-.02" y="-.03" width="1.046" height="1.05" style="color-interpolation-filters:sRGB">
   <feGaussianBlur stdDeviation="2.32"/>
  </filter>
  <filter id="filter4569" x="-.01" y="-.01" width="1.023" height="1.025" style="color-interpolation-filters:sRGB">
   <feGaussianBlur stdDeviation="1.16"/>
  </filter>
  <linearGradient id="a" x1="23.22" x2="23.22" y1="505.63" y2="-72.293" gradientTransform="scale(3.3593276 .29767862)" gradientUnits="userSpaceOnUse">
   <stop stop-color="#473788" offset=".3033"/>
   <stop stop-color="#2C2255" offset=".872"/>
  </linearGradient>
  <linearGradient id="b" x1="23.22" x2="23.22" y1="505.648" y2="-72.293" gradientTransform="scale(3.359184 .29769134)" gradientUnits="userSpaceOnUse">
   <stop stop-color="#473788" offset=".3033"/>
   <stop stop-color="#2C2255" offset=".872"/>
  </linearGradient>
  <linearGradient id="c" x1="44.025" x2="44.025" y1="266.682" y2="-38.117" gradientTransform="scale(1.771762 .5644099)" gradientUnits="userSpaceOnUse">
   <stop stop-color="#473788" offset=".3033"/>
   <stop stop-color="#2C2255" offset=".8631"/>
  </linearGradient>
  <linearGradient id="linearGradient2698" x1="4.929" x2="61.58" y1="230.808" y2="296.338" gradientUnits="userSpaceOnUse">
   <stop style="stop-color:#8c59d9" offset="0"/>
   <stop style="stop-color:#a7a7f1" offset="1"/>
  </linearGradient>
 </defs>
 <g transform="translate(0,-229.26666)">
  <path transform="matrix(.26970778 0 0 .26970778 -7.1289177 220.56049)" d="m188.96876 43.999995c72.64865 0 83.03125 10.356615 83.03125 82.937505v58.125c0 72.58059-10.3826 82.9375-83.03125 82.9375h-73.9375c-72.648654 0-83.031254-10.35691-83.031254-82.9375v-58.125c0-72.58089 10.3826-82.937505 83.031254-82.937505z" style="filter:url(#filter4569);opacity:.1"/>
  <path transform="matrix(.26970778 0 0 .26970778 -7.1289177 220.56049)" d="m188.96876 45.999995c72.64865 0 83.03125 10.356615 83.03125 82.937505v58.125c0 72.58059-10.3826 82.9375-83.03125 82.9375h-73.9375c-72.648654 0-83.031254-10.35691-83.031254-82.9375v-58.125c0-72.58089 10.3826-82.937505 83.031254-82.937505z" style="filter:url(#filter907);opacity:.2"/>
  <path d="m43.837426 232.42763c19.593907 0 22.394175 2.79326 22.394175 22.36889v15.67677c0 19.57555-2.800268 22.36888-22.394175 22.36888h-19.94152c-19.593906 0-22.394174-2.79333-22.394174-22.36888v-15.67677c0-19.57563 2.8002681-22.36889 22.394174-22.36889z" style="fill:url(#linearGradient2698)"/>
  <path transform="matrix(.13485389 0 0 .13485389 -4.9712555 261.01666)" d="M 361.9375,-212 C 507.2348,-212 528,-191.28677 528,-46.125 V 70.125 C 528,215.28618 507.2348,236 361.9375,236 H 214.0625 C 68.7652,236 48,215.28618 48,70.125 V -46.125 C 48,-191.28677 68.7652,-212 214.0625,-212 Z" clip-path="url(#clipPath1082-3-7-2)" style="fill:none;opacity:.2;stroke-linecap:round;stroke-linejoin:round;stroke-width:8;stroke:url(#linearGradient1108)"/>
  <path d="m46.614216 232.50785c-1.553393-0.0606-3.104176-0.11885-4.9413-0.11885h-12.376505l-28.111463 53.53265c0.026318 0.0605 0.044289 0.13377 0.071313 0.19327 0.2542511 0.55975 0.5398717 1.07466 0.8604125 1.54771 0.3205409 0.47304 0.6760391 0.90443 1.0697023 1.29759s0.8255272 0.74804 1.2991454 1.06815 0.9888535 0.6055 1.5492595 0.85938c0.5604061 0.25389 1.1660175 0.47627 1.8200439 0.67076 0.6540265 0.1945 1.3565026 0.36088 2.1109824 0.50282 0.7544791 0.14193 1.5613431 0.25932 2.4231081 0.35553 0.828942 0.0925 1.715039 0.16319 2.649451 0.21962z" style="fill:#f0f0f0;opacity:.2"/>
  <path d="m16.401917 262.79821c0-9.38575 7.04884-17.18406 16.21884-18.55575-0.22743-8e-3 -0.45609-0.0174-0.68585-0.0174-10.29031 1.9e-4 -18.63306 8.31584-18.63306 18.57317 0 10.2578 8.34244 18.57286 18.63306 18.57286 0.23054 0 0.45905-9e-3 0.6874-0.0171-9.17155-1.37153-16.22039-9.17-16.22039-18.55575z" style="fill:#f7941e"/>
  <g transform="translate(0 .52981781)">
   <path d="m24.224647 267.39599h-6.08565c0.80578 2.76391 2.30098 5.24113 4.48996 7.43058 3.48973 3.49004 7.686 5.23289 12.59315 5.23289 0.98093 0 1.93138-0.0731 2.85444-0.21234 3.69616-0.55798 6.93234-2.22911 9.70511-5.02055 2.20298-2.18867 3.70876-4.66667 4.52076-7.43058zm-3.35565-8.26528h-3.17908a18.587794 18.587794 0 0 0-0.23147 2.14277h35.52872c-0.0362-0.73111-0.11558-1.44433-0.23286-2.14277m-35.29586 4.13264c0.0359 0.73158 0.1148 1.44464 0.23147 2.14278h35.06501a18.489329 18.489329 0 0 0 0.23333-2.14278m-0.68506-6.12298c-0.81123-2.77153-2.31732-5.26042-4.52154-7.46511-2.76546-2.76531-5.99231-4.42446-9.67664-4.98259a19.182795 19.182795 0 0 0-2.88275-0.21561c-4.90716 0-9.10373 1.73336-12.59316 5.19836-2.18975 2.20453-3.68588 4.69342-4.49104 7.46495" style="fill:#2c2255"/>
   <g transform="matrix(.15555551 0 0 .15555551 13.276337 243.58838)">
    <path transform="translate(63.083,99.461)" d="m155.728 14.226a77.824 77.824 0 0 0-2.364-13.775h-150.722a77.753 77.753 0 0 0-2.366 13.775z" style="fill:url(#a)"/>
    <path transform="translate(63.083,99.461)" d="m155.728 27.02h-155.45a77.611 77.611 0 0 0 2.364 13.776h150.724a77.821 77.821 0 0 0 2.362-13.776z" style="fill:url(#b)"/>
    <path transform="translate(63.083,99.461)" d="m78.003 98.636c31.3 0 58.282-18.441 70.706-45.048h-141.412c12.425 26.607 39.405 45.048 70.706 45.048z" style="fill:url(#c)"/>
   </g>
   <g transform="matrix(.15555551 0 0 .15555551 13.276337 243.58838)" style="fill:#ffffff">
    <path d="m51.84 126.482h203.29c0.108-2.035 0.168-4.084 0.168-6.147 0-2.232-0.081-4.444-0.208-6.647h-228.205c-0.126 2.2-0.208 4.415-0.208 6.647 0 2.063 0.06 4.112 0.168 6.147zm18.084-39.362h-38.672c-1.271 4.166-2.091 8.44-2.879 12.795h224.692a113.52 113.52 0 0 0-3.075-12.795m-11.617 53.135h-210.002c0.766 4.352 1.638 8.623 2.888 12.794h219.479a113.252 113.252 0 0 0 3.023-12.794z"/>
   </g>
  </g>
  <path transform="matrix(.26458333 0 0 .26458333 0 229.26666)" d="m250.28711 94.951172c-0.01957-8.561436-0.15532-16.422472-0.5625-23.335938-0.21702-3.684712-0.50097-7.146679-0.86523-10.40039-0.36427-3.253712-0.80837-6.297958-1.34571-9.146485-0.53733-2.848527-1.16806-5.501544-1.90429-7.970703-0.73624-2.469159-1.57812-4.755486-2.53907-6.871094-0.96095-2.115607-2.04046-4.059783-3.25195-5.847656-1.21149-1.787872-2.55511-3.418343-4.04297-4.904297-1.48786-1.485953-3.1201-2.827257-4.91016-4.037109-1.79005-1.209852-3.73739-2.288481-5.85546-3.248047s-4.407-1.800059-6.87891-2.535156-5.12694-1.365899-7.97852-1.902344c-2.85157-0.536445-5.89918-0.980141-9.15625-1.34375-3.25706-0.363609-6.72373-0.646692-10.41211-0.863281-4.25141-0.249652-9.48822-0.252511-14.3496-0.34375l-118.73243 226.83008c2.552505 0.24778 5.110587 0.49162 7.914063 0.65625 7.37676 0.43319 15.641473 0.59766 24.898437 0.59766h75.371097c9.25696 0 17.52167-0.16447 24.89843-0.59766 3.68838-0.21659 7.15505-0.49967 10.41211-0.86328 3.25707-0.36361 6.30468-0.8073 9.15625-1.34375 2.85158-0.53645 5.50661-1.16724 7.97852-1.90235 2.47191-0.7351 4.76084-1.57558 6.87891-2.53515s4.06541-2.03819 5.85546-3.24805c1.79006-1.20985 3.4223-2.55115 4.91016-4.03711 1.48786-1.48595 2.83148-3.11642 4.04297-4.90429 1.21149-1.78788 2.291-3.73205 3.25195-5.84766s1.80283-4.40194 2.53907-6.87109c0.73623-2.46916 1.36696-5.12218 1.90429-7.97071 0.53734-2.84852 0.98144-5.89278 1.34571-9.14648 0.36426-3.25371 0.64821-6.71569 0.86523-10.40039 0.40718-6.91345 0.54293-14.77454 0.5625-23.33594v-62.330078z" style="fill:#ffffff;opacity:.1"/>
 </g>
</svg>

<svg xmlns="http://www.w3.org/2000/svg" xmlns:xlink="http://www.w3.org/1999/xlink" width="256" height="256" version="1.1" viewBox="0 0 67.73 67.73">
 <defs>
  <linearGradient id="linearGradient1108" x1="296" x2="296" y1="-212" y2="236" gradientUnits="userSpaceOnUse" xlink:href="#linearGradient1013"/>
  <linearGradient id="linearGradient1013">
   <stop offset="0" style="stop-color:#ffffff"/>
   <stop style="stop-color:#ffffff;stop-opacity:0.09803922" offset=".125"/>
   <stop style="stop-color:#000000;stop-opacity:0.09803922" offset=".925"/>
   <stop offset="1" style="stop-color:#000000;stop-opacity:0.49803922"/>
  </linearGradient>
  <clipPath id="clipPath1082-3-7-2" clipPathUnits="userSpaceOnUse">
   <path d="M 361.9375,-212 C 507.2348,-212 528,-191.28677 528,-46.125 V 70.125 C 528,215.28618 507.2348,236 361.9375,236 H 214.0625 C 68.7652,236 48,215.28618 48,70.125 V -46.125 C 48,-191.28677 68.7652,-212 214.0625,-212 Z" style="fill:#8c59d9"/>
  </clipPath>
  <filter style="color-interpolation-filters:sRGB" id="filter907" width="1.046" height="1.05" x="-.02" y="-.03">
   <feGaussianBlur stdDeviation="2.32"/>
  </filter>
  <filter style="color-interpolation-filters:sRGB" id="filter4569" width="1.023" height="1.025" x="-.01" y="-.01">
   <feGaussianBlur stdDeviation="1.16"/>
  </filter>
  <linearGradient id="a" x1="23.22" x2="23.22" y1="505.63" y2="-72.293" gradientTransform="scale(3.3593276,0.29767862)" gradientUnits="userSpaceOnUse">
   <stop offset="30.33%" stop-color="#473788"/>
   <stop offset="87.2%" stop-color="#2C2255"/>
  </linearGradient>
  <linearGradient id="b" x1="23.22" x2="23.22" y1="505.648" y2="-72.293" gradientTransform="scale(3.359184,0.29769134)" gradientUnits="userSpaceOnUse">
   <stop offset="30.33%" stop-color="#473788"/>
   <stop offset="87.2%" stop-color="#2C2255"/>
  </linearGradient>
  <linearGradient id="c" x1="44.025" x2="44.025" y1="266.682" y2="-38.117" gradientTransform="scale(1.771762,0.5644099)" gradientUnits="userSpaceOnUse">
   <stop offset="30.33%" stop-color="#473788"/>
   <stop offset="86.31%" stop-color="#2C2255"/>
  </linearGradient>
  <linearGradient id="linearGradient4195">
   <stop style="stop-color:#8c59d9" offset="0"/>
   <stop style="stop-color:#a7a7f1" offset="1"/>
  </linearGradient>
  <linearGradient id="linearGradient2698" x1="4.929" x2="61.58" y1="230.808" y2="296.338" gradientUnits="userSpaceOnUse" xlink:href="#linearGradient4195"/>
 </defs>
 <g transform="translate(0,-229.26666)">
  <path d="m 188.96876,43.999995 c 72.64865,0 83.03125,10.356615 83.03125,82.937505 v 58.125 c 0,72.58059 -10.3826,82.9375 -83.03125,82.9375 h -73.9375 C 42.382606,268 32.000006,257.64309 32.000006,185.0625 v -58.125 c 0,-72.58089 10.3826,-82.937505 83.031254,-82.937505 z" transform="matrix(0.26970778,0,0,0.26970778,-7.1289177,220.56049)" style="opacity:0.1;filter:url(#filter4569)"/>
  <path style="opacity:0.2;filter:url(#filter907)" d="m 188.96876,45.999995 c 72.64865,0 83.03125,10.356615 83.03125,82.937505 v 58.125 c 0,72.58059 -10.3826,82.9375 -83.03125,82.9375 h -73.9375 C 42.382606,270 32.000006,259.64309 32.000006,187.0625 v -58.125 c 0,-72.58089 10.3826,-82.937505 83.031254,-82.937505 z" transform="matrix(0.26970778,0,0,0.26970778,-7.1289177,220.56049)"/>
  <path d="m 43.837426,232.42763 c 19.593907,0 22.394175,2.79326 22.394175,22.36889 v 15.67677 c 0,19.57555 -2.800268,22.36888 -22.394175,22.36888 h -19.94152 c -19.5939064,0 -22.3941745,-2.79333 -22.3941745,-22.36888 v -15.67677 c 0,-19.57563 2.8002681,-22.36889 22.3941745,-22.36889 z" style="fill:url(#linearGradient2698)"/>
  <path d="M 361.9375,-212 C 507.2348,-212 528,-191.28677 528,-46.125 V 70.125 C 528,215.28618 507.2348,236 361.9375,236 H 214.0625 C 68.7652,236 48,215.28618 48,70.125 V -46.125 C 48,-191.28677 68.7652,-212 214.0625,-212 Z" clip-path="url(#clipPath1082-3-7-2)" transform="matrix(0.13485389,0,0,0.13485389,-4.9712555,261.01666)" style="opacity:0.2;fill:none;stroke:url(#linearGradient1108);stroke-width:8;stroke-linecap:round;stroke-linejoin:round"/>
  <path style="opacity:0.2;fill:#f0f0f0" d="m 46.614216,232.50785 c -1.553393,-0.0606 -3.104176,-0.11885 -4.9413,-0.11885 H 29.296411 L 1.1849479,285.92165 c 0.026318,0.0605 0.044289,0.13377 0.071313,0.19327 0.2542511,0.55975 0.5398717,1.07466 0.8604125,1.54771 0.3205409,0.47304 0.6760391,0.90443 1.0697023,1.29759 0.3936632,0.39316 0.8255272,0.74804 1.2991454,1.06815 0.4736182,0.32011 0.9888535,0.6055 1.5492595,0.85938 0.5604061,0.25389 1.1660175,0.47627 1.8200439,0.67076 0.6540265,0.1945 1.3565026,0.36088 2.1109824,0.50282 0.7544791,0.14193 1.5613431,0.25932 2.4231081,0.35553 0.828942,0.0925 1.715039,0.16319 2.649451,0.21962 z"/>
  <path style="fill:#f7941e" d="m 16.401917,262.79821 c 0,-9.38575 7.04884,-17.18406 16.21884,-18.55575 -0.22743,-0.008 -0.45609,-0.0174 -0.68585,-0.0174 -10.29031,1.9e-4 -18.63306,8.31584 -18.63306,18.57317 0,10.2578 8.34244,18.57286 18.63306,18.57286 0.23054,0 0.45905,-0.009 0.6874,-0.0171 -9.17155,-1.37153 -16.22039,-9.17 -16.22039,-18.55575 z"/>
  <g transform="translate(0,0.52981781)">
   <path d="m 24.224647,267.39599 h -6.08565 c 0.80578,2.76391 2.30098,5.24113 4.48996,7.43058 3.48973,3.49004 7.686,5.23289 12.59315,5.23289 0.98093,0 1.93138,-0.0731 2.85444,-0.21234 3.69616,-0.55798 6.93234,-2.22911 9.70511,-5.02055 2.20298,-2.18867 3.70876,-4.66667 4.52076,-7.43058 z m -3.35565,-8.26528 h -3.17908 a 18.587794,18.587794 0 0 0 -0.23147,2.14277 h 35.52872 c -0.0362,-0.73111 -0.11558,-1.44433 -0.23286,-2.14277 m -35.29586,4.13264 c 0.0359,0.73158 0.1148,1.44464 0.23147,2.14278 h 35.06501 a 18.489329,18.489329 0 0 0 0.23333,-2.14278 m -0.68506,-6.12298 c -0.81123,-2.77153 -2.31732,-5.26042 -4.52154,-7.46511 -2.76546,-2.76531 -5.99231,-4.42446 -9.67664,-4.98259 a 19.182795,19.182795 0 0 0 -2.88275,-0.21561 c -4.90716,0 -9.10373,1.73336 -12.59316,5.19836 -2.18975,2.20453 -3.68588,4.69342 -4.49104,7.46495" style="fill:#2c2255"/>
   <g transform="matrix(0.15555551,0,0,0.15555551,13.276337,243.58838)">
    <path d="M 155.728,14.226 A 77.824,77.824 0 0 0 153.364,0.451 H 2.642 A 77.753,77.753 0 0 0 0.276,14.226 Z" transform="translate(63.083,99.461)" style="fill:url(#a)"/>
    <path d="M 155.728,27.02 H 0.278 a 77.611,77.611 0 0 0 2.364,13.776 h 150.724 a 77.821,77.821 0 0 0 2.362,-13.776 z" transform="translate(63.083,99.461)" style="fill:url(#b)"/>
    <path d="m 78.003,98.636 c 31.3,0 58.282,-18.441 70.706,-45.048 H 7.297 c 12.425,26.607 39.405,45.048 70.706,45.048 z" transform="translate(63.083,99.461)" style="fill:url(#c)"/>
   </g>
   <g style="fill:#ffffff" transform="matrix(0.15555551,0,0,0.15555551,13.276337,243.58838)">
    <path d="m 51.84,126.482 h 203.29 c 0.108,-2.035 0.168,-4.084 0.168,-6.147 0,-2.232 -0.081,-4.444 -0.208,-6.647 H 26.885 c -0.126,2.2 -0.208,4.415 -0.208,6.647 0,2.063 0.06,4.112 0.168,6.147 z M 69.924,87.12 H 31.252 c -1.271,4.166 -2.091,8.44 -2.879,12.795 H 253.065 A 113.52,113.52 0 0 0 249.99,87.12 m -11.617,53.135 H 28.371 c 0.766,4.352 1.638,8.623 2.888,12.794 h 219.479 a 113.252,113.252 0 0 0 3.023,-12.794 z"/>
   </g>
  </g>
  <path style="opacity:0.1;fill:#ffffff" d="M 250.28711 94.951172 C 250.26754 86.389736 250.13179 78.5287 249.72461 71.615234 C 249.50759 67.930522 249.22364 64.468555 248.85938 61.214844 C 248.49511 57.961132 248.05101 54.916886 247.51367 52.068359 C 246.97634 49.219832 246.34561 46.566815 245.60938 44.097656 C 244.87314 41.628497 244.03126 39.34217 243.07031 37.226562 C 242.10936 35.110955 241.02985 33.166779 239.81836 31.378906 C 238.60687 29.591034 237.26325 27.960563 235.77539 26.474609 C 234.28753 24.988656 232.65529 23.647352 230.86523 22.4375 C 229.07518 21.227648 227.12784 20.149019 225.00977 19.189453 C 222.8917 18.229887 220.60277 17.389394 218.13086 16.654297 C 215.65895 15.9192 213.00392 15.288398 210.15234 14.751953 C 207.30077 14.215508 204.25316 13.771812 200.99609 13.408203 C 197.73903 13.044594 194.27236 12.761511 190.58398 12.544922 C 186.33257 12.29527 181.09576 12.292411 176.23438 12.201172 L 57.501953 239.03125 C 60.054458 239.27903 62.61254 239.52287 65.416016 239.6875 C 72.792776 240.12069 81.057489 240.28516 90.314453 240.28516 L 165.68555 240.28516 C 174.94251 240.28516 183.20722 240.12069 190.58398 239.6875 C 194.27236 239.47091 197.73903 239.18783 200.99609 238.82422 C 204.25316 238.46061 207.30077 238.01692 210.15234 237.48047 C 213.00392 236.94402 215.65895 236.31323 218.13086 235.57812 C 220.60277 234.84302 222.8917 234.00254 225.00977 233.04297 C 227.12784 232.0834 229.07518 231.00478 230.86523 229.79492 C 232.65529 228.58507 234.28753 227.24377 235.77539 225.75781 C 237.26325 224.27186 238.60687 222.64139 239.81836 220.85352 C 241.02985 219.06564 242.10936 217.12147 243.07031 215.00586 C 244.03126 212.89025 244.87314 210.60392 245.60938 208.13477 C 246.34561 205.66561 246.97634 203.01259 247.51367 200.16406 C 248.05101 197.31554 248.49511 194.27128 248.85938 191.01758 C 249.22364 187.76387 249.50759 184.30189 249.72461 180.61719 C 250.13179 173.70374 250.26754 165.84265 250.28711 157.28125 L 250.28711 94.951172 z" transform="matrix(0.26458333,0,0,0.26458333,0,229.26666)"/>
 </g>
</svg>
